X:45
T:Bussh\aallplatsvalsen
C:Amy Parker
%O:Sweden
R:Vals
Z:Bob Wyttenbach 5/31/03 from Andrea Hoag for NFF 2003
M:3/4
L:1/8
%Q:1/4=160
K:E %Transposed from D
P:A
uB ef|g3a gf|e2(ef) ed|(cd)(e2{fe}dc)|B3B ef|g2(3(agf)e2|
g3a gf|e2(ef) ed|B2(3(cBA)G2|F2(F3G)|[B3B3]B ef|(cd)(e2{fe}dc)|
B3B ef|g2(3(agf)e2|B2(3(cBA)G2|B2(Bd) (fd)|[1e3:|[2e4ed||
P:B
c2(c/d/c/B/ cd)|e3f ed|B2(.B3.A)|(G3B) ef|g3b ge|
A3E AB|(cd)(e2{fe}dc)|B2(Bc) BG|(G2F4)|([F4D4][E2A,2])|B3(c BA)|
G3B ef|g2 (3(agf)e2|B2 (3(cBA)G2|B2(Bd) (fd)|[1e4ed:|[2e3:|
